X:1
T:Title
%%score { ( 1 3 ) | ( 2 4 ) }
L:1/8
Q:1/4=93
M:6/8
K:Ab
V:1 treble nm="Grand Piano"
V:3 treble 
V:2 bass 
V:4 bass 
V:1
 [CE]2 [CEc] [EB]2 [CEA] | [DEG]3 [EGe]3 | [DE]2 [EGd] [EGc]2 [DEGB] | [CEA]3 [EAe]3 | %4
w: J.~Lincoln~Hall * * *||||
 [Fd]2 [Fd] [Fd][FA][=EB] | [Ec]3 [EA]3 | [=Dc]2 [DB] [D=A]2 [DB] | [Dc]3 B3 | %8
w: ||||
 [CE]2 [CEc] [EB]2 [CEA] | [DEG]3 [EGe]3 | [DE]2 [EGd] [EGc]2 [DEGB] | [CEA]3 [EAe]3 | %12
w: ||||
 [Fd]2 [Fd] [Fd][FA][=EB] | [Ec]3 [EA]2 [Ec] | [=Dc]2 [DB] [_DF]2 [DG] |[M:2/4] [CA]4 |[M:1/4] GF | %17
w: |||||
[M:3/4] E3 c3 | F3 d3 | c4 z2 | E3 A3 | G3 d3 | c4 z2 | E3 c3 | F3 d3 | c4 z2 | e4 z2 | e4 z2 | %28
w: |||||||||||
 c3 B3 | A6 |] %30
w: ||
V:2
 A,,E,A, CA,E, | B,,E,G, B,G,E, | B,,E,G, B,G,E, | A,,E,A, CA,E, | D,F,A, DA,D, | A,,E,A, CA,E, | %6
 B,,F,A, B,A,F, | E,G,B, DB,G, | A,,E,A, CA,E, | B,,E,G, B,G,E, | B,,E,G, B,G,E, | A,,E,A, CG,E, | %12
 D,F,A, DA,D, | A,,E,A, CA,E, | B,,F,A, B,G,E, |[M:2/4] A,,C, E,A, |[M:1/4] G,F, | %17
[M:3/4] z [E,A,] .[E,A,]2 [E,A,C][E,A,C] | z A, .A,2 [A,D]A, | z [E,A,C] [E,A,C][E,A,CE] G,F, | %20
 z [E,A,] .[E,A,]2 [E,A,C][E,A,C] | z [B,D] .[B,D]2 [B,E][B,E] | z [E,A,C] [E,A,C][E,A,C] G,F, | %23
 z [E,A,] .[E,A,]2 [E,A,C][E,A,C] | z A, .A,2 [A,D][A,D] | z [E,A,C] [E,A,C][E,A,CE] z2 | %26
 z2 z ._G3 | [D,A,][D,A,] [D,A,][D,A,] [D,A,][D,A,] | z [A,C] .[A,C]2 [A,D][A,D] | %29
 z [E,A,C] [F,A,_C] [E,A,=C]3 |] %30
V:3
 x6 | x6 | x6 | x6 | x6 | x6 | x6 | x6 | x6 | x6 | x6 | x6 | x6 | x6 | x6 |[M:2/4] x4 |[M:1/4] x2 | %17
[M:3/4] z C .C2 EE | z D .D2 FD | z E EA GF | z C .C2 EE | z E .E2 GG | z E EE GF | z C .C2 EE | %24
 z D .D2 =EE | z E EA Ac | z _G GA Bc | FF F[Fd] [FA][=EB] | z E .E2 EE | z E =D E3 |] %30
V:4
 x6 | x6 | x6 | x6 | x6 | x6 | x6 | x6 | x6 | x6 | x6 | x6 | x6 | x6 | x6 |[M:2/4] x4 |[M:1/4] x2 | %17
[M:3/4] A,,3 A,,3 | D,3 D,3 | A,,4 z2 | A,,3 A,,3 | E,3 E,3 | A,,4 z2 | A,,3 A,,3 | D,3 D,3 | %25
 A,,4 z2 | [A,C_G][A,C] [A,C][A,C] z2 | x6 | E,3 E,3 | A,,6 |] %30

